X:310
T:Hornpipe Waltz
M:3/4
C:© Paul Gitlitz 2011
K:G
(3DEF|"G"GF GA BG|"D"AF D2(3DEF|"G"GF GA Bd|"Em"e4 ef|!
"G"gf ga bg|"D"af d2ef|"C"gf ed BA|"Em"B4 (3DEF|!
"G"GF GA BG|"D"AF D2(3DEF|"G"GF GA Bd|"Em"e4 ef|!
"G"gb ag fe|"C"(3ded cB AG|"D"(3ABA GF EF|"G"G4GA|!
"G"BA GA BG|"D"AF D2 EF|"C"GE CE GE|"D"F4GA|!
"G"BA GA dB|"D"AF D2 AB|"C"cB cd eg|"D"f4ga|!
"G"ba ga bg|"D"af d2 ef|"Em"gf ed BA|B4(3DEF|!
"G"GF GB dB|"C"cB ca ge|"D"(3ded cB AF|"G"G6|]
